src/48x48/places/folder-gruvbox-material-orange-syncthing.svg

<svg xmlns="http://www.w3.org/2000/svg" width="48" height="48" version="1">
 <rect style="opacity:0.2" width="40" height="26" x="4" y="17" rx="2" ry="2"/>
 <path style="fill:#c35e0a" d="M 4,34 C 4,35.108 4.892,36 6,36 H 42 C 43.108,36 44,35.108 44,34 V 12 C 44,10.892 43.108,10 42,10 H 24 C 21,10 20,6 17,6 H 6 C 4.892,6 4,6.892 4,8"/>
 <rect style="opacity:0.2" width="40" height="26" x="4" y="15" rx="2" ry="2"/>
 <rect style="fill:#F5E4C1" width="36" height="16" x="6" y="13" rx="2" ry="2"/>
 <rect style="fill:#e78a4e" width="40" height="26" x="4" y="16" rx="2" ry="2"/>
 <path style="fill:#564135" d="M 24 21 C 19.581722 21.000001 16 24.581722 16 29 C 16 33.418278 19.581722 36.999999 24 37 C 28.418278 37 32 33.418278 32 29 C 32 24.581722 28.418278 21 24 21 z M 24 22 C 27.865993 22 31 25.134006 31 29 C 31 32.865993 27.865993 36 24 36 C 20.134006 35.999999 17 32.865993 17 29 C 17 25.134006 20.134006 22.000001 24 22 z"/>
 <path style="opacity:0.1;fill:#F5E4C1" d="M 6,6 C 4.892,6 4,6.892 4,8 V 9 C 4,7.892 4.892,7 6,7 H 17 C 20,7 21,11 24,11 H 42 C 43.108,11 44,11.892 44,13 V 12 C 44,10.892 43.108,10 42,10 H 24 C 21,10 20,6 17,6 Z"/>
 <path fill="none" stroke-width="1.143" style="stroke:#564135" d="m 17,31 9,-2 5,-3"/>
 <path fill="none" stroke-width="1.143" style="stroke:#564135" d="M 30,34 26,29"/>
 <circle style="fill:#564135" cx="30" cy="34" r="2"/>
 <circle style="fill:#564135" cx="31" cy="26" r="2"/>
 <circle style="fill:#564135" cx="26" cy="29" r="2"/>
 <circle style="fill:#564135" cx="17" cy="31" r="2"/>
</svg>

<?xml version="1.0" encoding="UTF-8"?>
<svg width="48" height="48" version="1" xmlns="http://www.w3.org/2000/svg">
 <rect x="4" y="17" width="40" height="26" rx="2" ry="2" opacity=".2"/>
 <path d="m4 34c0 1.108 0.892 2 2 2h36c1.108 0 2-0.892 2-2v-22c0-1.108-0.892-2-2-2h-18c-3 0-4-4-7-4h-11c-1.108 0-2 0.892-2 2" fill="#c35e0a"/>
 <rect x="4" y="15" width="40" height="26" rx="2" ry="2" opacity=".2"/>
 <rect x="6" y="13" width="36" height="16" rx="2" ry="2" fill="#F5E4C1"/>
 <rect x="4" y="16" width="40" height="26" rx="2" ry="2" fill="#e78a4e"/>
 <path d="m24 21c-4.4183 1e-6 -8 3.5817-8 8s3.5817 8 8 8c4.4183 0 8-3.5817 8-8s-3.5817-8-8-8zm0 1c3.866 0 7 3.134 7 7 0 3.866-3.134 7-7 7-3.866-1e-6 -7-3.134-7-7 0-3.866 3.134-7 7-7z" fill="#564135"/>
 <path d="m6 6c-1.108 0-2 0.892-2 2v1c0-1.108 0.892-2 2-2h11c3 0 4 4 7 4h18c1.108 0 2 0.892 2 2v-1c0-1.108-0.892-2-2-2h-18c-3 0-4-4-7-4z" fill="#F5E4C1" opacity=".1"/>
 <path d="m17 31 9-2 5-3" fill="none" stroke="#564135" stroke-width="1.143"/>
 <path d="m30 34-4-5" fill="none" stroke="#564135" stroke-width="1.143"/>
 <circle cx="30" cy="34" r="2" fill="#564135"/>
 <circle cx="31" cy="26" r="2" fill="#564135"/>
 <circle cx="26" cy="29" r="2" fill="#564135"/>
 <circle cx="17" cy="31" r="2" fill="#564135"/>
</svg>
